T: Bill Harte's
M: 4/4
L: 1/8
K: Dmix
|| DEGA BG~G2 | AGBG AGEG | DEGA (3Bcd ed | BAAB AB GE |DEGA BG~G2 | AGBG AGEG | DEGA (3Bcd ed |BAAB A2 Bd ||eA~A2 (3Bcd eg | dGGF G2 (3Bcd | eA~A2 (3Bcd eg | dBGB A2 (3Bcd|eA~A2 (3Bcd eg | dGGF G2 | eg~g2 edea | gedB ABGE ||| gedB cdBA | G2 z2 ||
